!!!OTL: Jungfer Doertchen Es war ein Reiter hochgemut,
!!!ARE: Europa, Osteuropa, UdSSR, Rossiya, Wolgakolonie
!!!YOR: 3, S. 100
!!    1923 gedruckt in Muenchen
!!!SCT: Q0057O
!!!YEM: Copyright 1995, estate of Helmut Schaffrath.
**kern
*ICvox
*Ivox
*M4/4
*k[f#]
*G:
{8d
4g
4f#
=1
4a
8g
8a
4b
16cc
32dd
32cc
16b
16cc
=2
4a
8r}
{8d
4cc
8.b
32cc
32a
=3
4dd
16cc
16b
8cc
4b
32g
32a
8.f#
=4
4g
8r}
{8d
8g
8a
8g
8a
=5
4.a
8g
4b
16cc
32dd
32cc
16b
16cc
=6
4a
8r}
{8g
16f#
16g
8a
16cc
16b
8cc
=7
8a
8b
4g
4b
32g
32a
8.f#
=8
4g
8r}
==
!!!AGN: Ballade, Todesahnung, Tod, Selbstmord
!! Zweistimmig notiert, Oberstimme kodiert. Verzierungen (Vorschlaege)
!!    in der ersten und letzten Zeile.
!!!ONB: ESAC (Essen Associative Code) Database: BALLADE
!!!AMT: simple quadruple
!!!AIN: vox
!!!EED: Helmut Schaffrath
!!!EEV: 1.0
*-
